!!!!SEGMENT: pl-kk--kk-i-320--002_abersbach-jan-jiri--sub-tuum-praesidium.krn
!!!cenid: 17xx:2121
!!!COM: Abersbach, Jan Jiří
!!!COM-rismID: pe30008165
!!!CDT: 1654-1704
!!!CNT: Czech
!!!OTL: Sub tuum praesidium
!!!PDT:
!!!AGN: Sacred
!!!YEC: Copyright 2022 Narodowy Instytut Fryderyka Chopina (https://polishscores.org)
!!!YEM: License CC-BY-4.0 (https://creativecommons.org/licenses/by/4.0)
!!!SMS-siglum: PL-Kk
!!!SMS-shelfmark: Kk.I.320
!!!SMS-shelfwork: 002 W
!!!SMS-variant:
!!!SMS-altvar:
!!!NIFC-rismSourceID: 1001146211
!!!NIFC-rismChildID: 1001146215
!!!NIFC-islandoraID: pl-kk:5345
!!!URL-pdf-islandora: https://repozytorium.nifc.pl/islandora/object/pl-kk%3A5345/datastream/PDF/view
!!!URL-scan: https://polish.musicsources.pl/pl/lokalizacje/galeria/rekopisy/5939 @EN{Scan on Polish Music Sources Website} @PL{Skany w portalu Dziedzictwo Muzyki Polskiej w otwartym dostępie}
!!!IIIF:
!!!ONB-nifc: UWAGA: utwory w zbiorze: 1. Te splendor et virtus patris, 2. Sub tuum praesidium
!!!AIN: 1 alto 2 empty 1 tenor 1 vox
!!!key:
**kern	**text	**kern	**text	**kern	**text	**kern	**text	**kern	**text
*	*	*group1	*	*group1	*	*group1	*	*group1	*
*part5	*	*part4	*	*part3	*	*part2	*	*part1	*
*staff5	*	*staff4	*	*staff3	*	*staff2	*	*staff1	*
*Iempty	*	*Iempty	*	*Itenor	*	*Ialto	*	*Ivox	*
*I"Baſso Ripieno.	*	*I"[Basso]	*	*I"[Tenore]	*	*I"[Alto]	*	*I"[Canto]	*
*I'B rip	*	*I'[B]	*	*I'[T]	*	*I'[A]	*	*I'[S]	*
*clefF4	*	*clefF4	*	*clefC4	*	*clefC3	*	*clefC1	*
*k[]	*	*k[]	*	*k[]	*	*k[]	*	*k[]	*
*e:	*	*e:	*	*e:	*	*e:	*	*e:	*
*M2/1	*	*M2/1	*	*M2/1	*	*M2/1	*	*M2/1	*
*met(C|)	*	*met(C|)	*	*met(C|)	*	*met(C|)	*	*met(C|)	*
=1-	=1-	=1-	=1-	=1-	=1-	=1-	=1-	=1-	=1-
!LO:TX:t=P:problem=kreska pseudotaktowa	!	!LO:TX:a:t=De B(eati)ſ(si)ma V(irgo) Maria	!	!LO:TX:a:t=De B(eati)ſ(si)ma V(irgo) Maria	!	!LO:TX:a:t=De B(eati)ſ(si)ma V(irgo) Maria	!	!	!
!LO:TX:a:t=Signiore Aberspach	!	!LO:TX:t=P:problem=kreska pseudotaktowa	!	!LO:TX:t=P:problem=kreska pseudotaktowa	!	!LO:TX:t=P:problem=kreska pseudotaktowa	!	!LO:TX:a:t=De B(eati)ſ(si)ma V(irgo) Maria	!
!	!	!	!	!	!	!LO:TX:t=P:problem=dopisany dźwięk 1e	!	!	!
1rA	.	1rD	.	1E	Sub	1rc	.	00r	.
!	!	!	!	!	!	!LO:TX:t=P:problem=kreska pseudotaktowa	!	!	!
1BB	Sub	1BB	Sub	1F#X	Tu-	1d	Sub	.	.
!	!	!	!	!LO:LB:g=original	!	!	!	!	!
=2-	=2-	=2-	=2-	=2-	=2-	=2-	=2-	=2-	=2-
!LO:TX:t=P:problem=kreska pseudotaktowa	!	!LO:TX:t=P:problem=kreska pseudotaktowa	!	!	!	!	!	!	!
1C	Tu-	1C	tu-	2E/	-u(m)	1e	Tu-	.	.
!	!	!	!	!LO:TX:t=P:problem=kreska pseudotaktowa	!	!	!	!	!
.	.	.	.	2A\	prae-	.	.	.	.
2BB/	-um	2BB/	-um	2.B\	-si-	2d#X\	-um	.	.
*2\right	*	*	*	*	*	*	*	*	*
!	!	!	!	!	!	!LO:TX:a:t=P:problem=# above	!	!	!
!LO:TX:t=P:problem=kreska pseudotaktowa	!	!LO:TX:t=P:problem=kreska pseudotaktowa	!	!	!	!LO:TX:t=P:problem=kreska pseudotaktowa	!	!	!
2D#X\	p(rae)-	2D#X/	prae-	.	.	2f#X\	prae-	.	.
.	.	.	.	4A\	-di-	.	.	.	.
=3-	=3-	=3-	=3-	=3-	=3-	=3-	=3-	=3-	=3-
!	!	!	!	!LO:TX:t=P:problem=kreska pseudotaktowa	!	!	!	!LO:TX:t=P:problem=kreska pseudotaktowa	!
2.E\	-ſi-	2.E\	-si-	1G	-um	2.g\	-si-	1b	Sub
!	!	!	!	!	!	!LO:TX:a:t=P:problem=# above	!	!	!
!	!	!LO:TX:t=P:problem=kreska pseudotaktowa	!	!	!	!LO:TX:t=P:problem=kreska pseudotaktowa	!	!	!
4Dny\	-di-	4Dny/	-di-	.	.	4f#X\	-di-	.	.
!	!	!	!	!	!	!LO:LB:g=original	!	!	!
2C,</	-um	2C/	-u(m)	2rF	.	2e\	-(um)	1cc	tu-
!LO:TX:t=P:problem=kreska pseudotaktowa	!	!LO:TX:t=P:problem=kreska pseudotaktowa	!	!	!	!LO:TX:t=P:problem=kreska pseudotaktowa	!	!	!
2AA/	con-	2AA/	con-	2A/	Con-	2c/	con-	.	.
=4-	=4-	=4-	=4-	=4-	=4-	=4-	=4-	=4-	=4-
2.BB/	-fu-	2.BB/	-fu-	2.F#X/	-fu-	2.B/	-fu-	2b\	-u(m)
!	!	!	!	!	!	!	!	!LO:TX:t=P:problem=kreska pseudotaktowa	!
!	!	!	!	!	!	!	!	!LO:TX:a:t=P:problem=# above	!
.	.	.	.	.	.	.	.	2dd#X\	prae-
4BB/	-gi-	4BB/	-gi-	4F#/	-gi-	4B/	-gi-	.	.
!LO:TX:t=P:problem=kreska pseudotaktowa	!	!LO:TX:t=P:problem=kreska pseudotaktowa	!	!LO:TX:t=P:problem=kreska pseudotaktowa	!	!LO:TX:t=P:problem=kreska pseudotaktowa	!	!	!
1E	-m(us)	1EE	-m(us)	1E	-m(us)	1B	-m(us)	2.ee\	-ſi-
!	!	!	!	!	!	!	!	!LO:TX:t=P:problem=kreska pseudotaktowa	!
.	.	.	.	.	.	.	.	4ddny\	-di-
=5-	=5-	=5-	=5-	=5-	=5-	=5-	=5-	=5-	=5-
!LO:TX:t=P:problem=kreska pseudotaktowa	!	!	!	!	!	!	!	!	!
0r	.	0rD	.	1r	.	0r	.	2cc\	-u(m)
.	.	.	.	.	.	.	.	2b\	con-
.	.	.	.	2.d\	San-	.	.	2.a\	-fu-
!	!	!	!	!LO:TX:t=P:problem=kreska pseudotaktowa	!	!	!	!LO:TX:t=P:problem=kreska pseudotaktowa	!
.	.	.	.	4d\	-cta	.	.	4a\	-gi-
=6-	=6-	=6-	=6-	=6-	=6-	=6-	=6-	=6-	=6-
2.G\	San-	2.G\	San-	2B\	De-	1r	.	1g	-m(us)
!	!	!	!	!LO:TX:t=P:problem=kreska pseudotaktowa	!	!	!	!	!
.	.	.	.	2G/	-i	.	.	.	.
!	!	!LO:TX:t=P:problem=kreska pseudotaktowa	!	!	!	!	!	!	!
4G\	-cta	4G\	-cta	.	.	.	.	.	.
2F#X\	De-	2F#X\	De-	(2A\	ge-	2.f#X\	San-	2.dd\	San-
!LO:TX:t=P:problem=kreska pseudotaktowa	!	!LO:TX:t=P:problem=kreska pseudotaktowa	!	!	!	!	!	!	!
2D,<\	-i	2D\	-i	2B\	.	.	.	.	.
!	!	!	!	!	!	!LO:TX:t=P:problem=kreska pseudotaktowa	!	!LO:TX:t=P:problem=kreska pseudotaktowa	!
.	.	.	.	.	.	4f#\	-cta	4dd\	-cta
=7-	=7-	=7-	=7-	=7-	=7-	=7-	=7-	=7-	=7-
*	*ij	*	*	*	*	*	*	*	*
2E\	De-	2E\	De-	2.c\)	.	2e\	De-	2cc\	De-
!LO:TX:t=P:problem=kreska pseudotaktowa	!	!LO:TX:t=P:problem=kreska pseudotaktowa	!	!	!	!LO:TX:t=P:problem=kreska pseudotaktowa	!	!LO:LB:g=original	!
2F#X,<\	-i	2F#X\	-i	.	.	2A/	-i	2a\	-i
*	*Xij	*	*	*	*	*	*	*	*
.	.	.	.	4c\	-ni-	.	.	.	.
!	!	!	!	!LO:TX:t=P:problem=kreska pseudotaktowa	!	!	!	!	!
2.G\	Ge-	2.G\	ge-	1B	-trix	2.dny\	Ge-	2b\	De-
!	!	!	!	!	!	!	!	!LO:TX:t=P:problem=kreska pseudotaktowa	!
.	.	.	.	.	.	.	.	2cc\	-i
!	!	!	!	!	!	!LO:TX:t=P:problem=kreska pseudotaktowa	!	!	!
4G\	-ni-	4G\	-ni-	.	.	4e\	-ni-	.	.
=8-	=8-	=8-	=8-	=8-	=8-	=8-	=8-	=8-	=8-
!LO:TX:t=P:problem=zbędna pauza w [T]	!	!LO:TX:t=P:problem=zbędna pauza w [T]	!	!LO:TX:t=P:problem=zbędna pauza	!	!LO:TX:t=P:problem=zbędna pauza w [T]	!	!LO:TX:t=P:problem=zbędna pauza w [T]	!
1ryy	.	1ryy	.	1rA	.	1ryy	.	1ryy	.
*	*	*	*	*	*ij	*	*	*	*
!LO:TX:t=P:problem=kreska pseudotaktowa	!	!LO:TX:t=P:problem=kreska pseudotaktowa	!	!	!	!	!	!	!
1D	-trix	1D	-trix	1.A	San-	1f#X	-trix	2.dd\	Ge-
.	.	.	.	.	.	.	.	4dd\	-ni-
=9-	=9-	=9-	=9-	=9-	=9-	=9-	=9-	=9-	=9-
*	*	*	*	*	*	*	*ij	*	*
2.E\	S(an)-	2.E\	S(an)-	.	.	2.g\	San-	2b\	-trix
!	!	!	!	!LO:TX:t=P:problem=kreska pseudotaktowa	!	!	!	!	!
.	.	.	.	2A/	-cta	.	.	1b	De-
!	!	!	!	!	!	!LO:TX:a:t=P:problem=# above	!	!	!
!	!	!LO:TX:t=P:problem=kreska pseudotaktowa	!	!	!	!LO:TX:t=P:problem=kreska pseudotaktowa	!	!	!
4E\	-cta	4E\	-cta	.	.	4f#X\	-cta	.	.
2E\	De-	2E\	De-	2G/	De-	2e\	De-	.	.
!	!	!LO:TX:t=P:problem=kreska pseudotaktowa	!	!	!	!LO:TX:t=P:problem=kreska pseudotaktowa	!	!LO:TX:t=P:problem=kreska pseudotaktowa	!
2D\	-i	2D/	-i	2d\	-i	2f#X\	-i	2b\	-i
!LO:LB:g=original	!	!	!	!	!	!	!	!	!
=10-	=10-	=10-	=10-	=10-	=10-	=10-	=10-	=10-	=10-
1.C	Ge-	1.C	ge-	1.e	ge-	1.g	Ge-	1.b	ge-
!	!	!LO:TX:t=P:problem=kreska pseudotaktowa	!	!LO:TX:t=P:problem=kreska pseudotaktowa	!	!LO:TX:t=P:problem=kreska pseudotaktowa	!	!	!
2C/	-ni-	2C/	-ni-	2e\	-ni-	2a\	-ni-	2a\	-ni-
=11-	=11-	=11-	=11-	=11-	=11-	=11-	=11-	=11-	=11-
!LO:TX:t=P:problem=kreska pseudotaktowa	!	!LO:TX:t=P:problem=kreska pseudotaktowa	!	!LO:TX:t=P:problem=kreska pseudotaktowa	!	!LO:TX:t=P:problem=kreska pseudotaktowa	!	!LO:TX:t=P:problem=kreska pseudotaktowa	!
0BB,<	-trix	0BB	-trix	0d#X	-trix	0f#X	-trix	0b	-trix
*	*	*	*	*	*Xij	*	*Xij	*	*
!	!	!LO:LB:g=original	!	!	!	!	!	!	!
=12-	=12-	=12-	=12-	=12-	=12-	=12-	=12-	=12-	=12-
!	!	!LO:TX:t=P:problem=kreska pseudotaktowa	!	!	!	!LO:TX:t=P:problem=kreska pseudotaktowa	!	!	!
1G	noſ-	1GG	nos-	1r	.	1g	noſ-	1b	noſ-
!LO:TX:t=P:problem=kreska pseudotaktowa	!	!LO:TX:t=P:problem=kreska pseudotaktowa	!	!	!	!	!	!	!
1G	-tras	1GG	-tras	1dny	noſ-	1g	-tras	1b	-traſ
=13-	=13-	=13-	=13-	=13-	=13-	=13-	=13-	=13-	=13-
2.D/	de-	2.D/	de-	2d\	-tras	2.fny\	de-	2.dd\	de-
!	!	!	!	!LO:TX:t=P:problem=kreska pseudotaktowa	!	!	!	!	!
.	.	.	.	2d\	de-	.	.	.	.
!	!	!	!	!	!	!LO:TX:t=P:problem=kreska pseudotaktowa	!	!LO:TX:t=P:problem=kreska pseudotaktowa	!
4BB/	-pre-	4BB/	-pre-	.	.	4g\	-pre-	4dd\	-pre-
2E\	-ca-	2E\	-ca-	2G/	-pre-	2e\	-ca-	2b\	-ca-
!	!	!LO:TX:t=P:problem=kreska pseudotaktowa	!	!	!	!	!	!LO:TX:t=P:problem=kreska pseudotaktowa	!
2D\	-ti-	2D/	-ti-	4A\	-ca-	2f#X\	-ti-	2dd\	-ti-
!	!	!	!	!LO:TX:t=P:problem=kreska pseudotaktowa	!	!	!	!	!
.	.	.	.	4B\	-ti-	.	.	.	.
=14-	=14-	=14-	=14-	=14-	=14-	=14-	=14-	=14-	=14-
!LO:TX:t=P:problem=kreska pseudotaktowa	!	!	!	!	!	!LO:TX:t=P:problem=kreska pseudotaktowa	!	!	!
1C	-o-	1C	-o-	1c	-o-	1e	-o-	1g	-o-
!	!	!	!	!	!	!LO:TX:a:t=d	!	!	!
!	!	!	!	!LO:LB:g=original	!	!LO:TX:t=P:problem=kreska pseudotaktowa	!	!	!
2BB,</	-nes	2BB/	-nes	2d,<\	-nes	1d	-nes	2b\	-neſ
1AA/	ne	1AA/	ne	1c\	ne	.	.	1cc\	ne
=15-	=15-	=15-	=15-	=15-	=15-	=15-	=15-	=15-	=15-
.	.	.	.	.	.	2e\	ne	.	.
*	*	*	*	*	*	*custos:d	*	*	*
!	!	!	!	!	!	!LO:TX:t=P:problem=kreska pseudotaktowa	!	!	!
!LO:TX:t=P:problem=kreska pseudotaktowa	!	!LO:TX:t=P:problem=kreska pseudotaktowa	!	!LO:TX:t=P:problem=kreska pseudotaktowa	!	!	!	!LO:TX:t=P:problem=kreska pseudotaktowa	!
2GG/	de-	2GG/	de-	2G/	de-	2d\	de-	2cc\	de-
!	!	!	!	!	!	!LO:LB:g=original	!	!	!
2.D\	-ſpi-	2.D/	-ſpi-	2.G/	-ſpi-	2.d\	-ſpi-	2.a\	-ſpi-
!	!	!	!	!LO:TX:b:t=P:problem=# below	!	!	!	!	!
!	!	!	!	!LO:TX:t=P:problem=kreska pseudotaktowa	!	!	!	!LO:TX:t=P:problem=kreska pseudotaktowa	!
4D\	-ci-	4D/	-ci-	4F#X/	-ci-	4d\	-ci-	4a\	-ci-
=16-	=16-	=16-	=16-	=16-	=16-	=16-	=16-	=16-	=16-
!	!	!	!	!	!	!LO:TX:t=P:problem=kreska pseudotaktowa	!	!	!
2GG,</	-as	2GG/	-as	2G/	-as	1d	-as	2b\	-aſ
1G	in	1G	in	1d	in	.	.	1b	in
.	.	.	.	.	.	1r	.	.	.
!LO:TX:t=P:problem=kreska pseudotaktowa	!	!LO:TX:t=P:problem=kreska pseudotaktowa	!	!LO:TX:t=P:problem=kreska pseudotaktowa	!	!	!	!	!
2F#X\	ne-	2F#X\	ne-	2d\	ne-	.	.	2a\	ne-
!	!	!	!	!	!	!	!	!LO:LB:g=original	!
=17-	=17-	=17-	=17-	=17-	=17-	=17-	=17-	=17-	=17-
1E	-ceſ-	1E	-ceſ-	1B	-ceſ-	2r	.	1g	-ceſ-
!	!	!	!	!	!	!LO:TX:t=P:problem=kreska pseudotaktowa	!	!	!
.	.	.	.	.	.	2g\	in	.	.
2D#X\	-si-	2D#X/	-si-	2B\	-si-	2f#X\	ne-	2b\	-si-
!	!	!	!	!	!	!	!	!LO:TX:t=P::problem=kreska pseudotaktowa&colon;między nutą a kropką	!
2.E\	-ta-	2.E\	-ta-	2.G/	-ta-	2.e\	-ceſ-	2.b\	-ta-
=18-	=18-	=18-	=18-	=18-	=18-	=18-	=18-	=18-	=18-
.	.	.	.	.	.	.	.	.	.
4E\	-ti-	4E\	-ti-	4G/	-ti-	4e\	-si-	4b\	-ti-
!LO:TX:t=P:problem=kreska pseudotaktowa	!	!LO:TX:t=P:problem=kreska pseudotaktowa	!	!LO:TX:t=P:problem=kreska pseudotaktowa	!	!LO:TX:t=P:problem=kreska pseudotaktowa	!	!	!
2C/	-b(us)	2C/	-b(us)	2A/	-b(us)	2e\	-ta-	2a\	-b(us)
0BB	nos-	0BB	noſ-	0B	noſ-	4d\	-ti-	2f#X/	no-
!	!	!	!	!	!	!LO:TX:a:t=P:problem=# above	!	!	!
.	.	.	.	.	.	4d#X\	-b(us)	.	.
.	.	.	.	.	.	1e\	nos-	2e/	.
=19-	=19-	=19-	=19-	=19-	=19-	=19-	=19-	=19-	=19-
!	!	!	!	!	!	!	!	!LO:TX:a:t=P:problem=# above	!
!	!	!	!	!	!	!	!	!LO:TX:t=P:problem=kreska pseudotaktowa	!
.	.	.	.	.	.	.	.	1f#X	.
!	!	!	!	!	!	!LO:TX:a:t=P:problem=# above	!	!	!
.	.	.	.	.	.	2d#X\	.	.	.
!	!	!	!	!LO:TX:t=P:problem=kreska pseudotaktowa	!	!LO:TX:t=P:problem=kreska pseudotaktowa	!	!	!
2E,<\	-tris	2EE/	-tris	1B	-tris	1e	-tris	2e,</	-ſtris
!	!	!LO:TX:t=P:problem=kreska pseudotaktowa	!	!	!	!	!	!LO:TX:t=P:problem=kreska pseudotaktowa	!
2E\	sed	2E\	Sed	.	.	.	.	2g/	ſed
=20-	=20-	=20-	=20-	=20-	=20-	=20-	=20-	=20-	=20-
2E\	à	2E\	à	2rF	.	0r	.	2g/	à
!LO:TX:t=P:problem=kreska pseudotaktowa	!	!LO:TX:t=P:problem=kreska pseudotaktowa	!	!	!	!	!	!LO:TX:a:t=P:problem=# above	!
2Dny\	pe-	2Dny/	pe-	2B\	Sed	.	.	2f#X/	pe-
!LO:LB:g=original	!	!	!	!	!	!	!	!	!
4.G\	-ri-	4.G\	-ri-	2B\	à	.	.	4.b\	-ri-
8G\	-cu-	8G\	-cu-	.	.	.	.	8b\	-cu-
!LO:TX:t=P:problem=kreska pseudotaktowa	!	!LO:TX:t=P:problem=kreska pseudotaktowa	!	!LO:TX:t=P:problem=kreska pseudotaktowa	!	!	!	!LO:TX:t=P:problem=kreska pseudotaktowa	!
2F#X\	-lis	2F#X\	-lis	2A/	pe-	.	.	2f#X/	-lis
=21-	=21-	=21-	=21-	=21-	=21-	=21-	=21-	=21-	=21-
1E	cun-	1E	cun-	4.d\	-ri-	2r	.	(2g/	Cun-
.	.	.	.	8d\	-cu-	.	.	.	.
!	!	!	!	!LO:TX:t=P:problem=kreska pseudotaktowa	!	!LO:TX:t=P:problem=kreska pseudotaktowa	!	!	!
.	.	.	.	2c\	-lis	2e\	Sed	2a\)	.
!LO:TX:t=P:problem=kreska pseudotaktowa	!	!LO:TX:t=P:problem=kreska pseudotaktowa	!	!	!	!	!	!LO:TX:t=P:problem=kreska pseudotaktowa	!
1BB	-ctis	1BB	-ctis	1B	Cun-	2e\	.	1b	-ctis
!	!	!	!	!	!	!LO:TX:t=P:problem=kreska pseudotaktowa	!	!	!
.	.	.	.	.	.	2dny\	à	.	.
=22-	=22-	=22-	=22-	=22-	=22-	=22-	=22-	=22-	=22-
!	!	!	!	!LO:TX:t=P:problem=kreska pseudotaktowa	!	!	!	!	!
1r	.	1rD	.	1c	-cto	4.g\	pe-	2.b\	Li-
.	.	.	.	.	.	8g\	-ri-	.	.
!	!	!	!	!	!	!LO:TX:t=P:problem=kreska pseudotaktowa	!	!	!
.	.	.	.	.	.	2f#X\	-cu-	.	.
.	.	.	.	.	.	.	.	4a\	-be-
2.C/	li-	2.C/	li-	2r	.	1e	-lis	2g/	-ra
!	!	!	!	!	!	!	!	!LO:TX:t=P:problem=kreska pseudotaktowa	!
.	.	.	.	2.A/	li-	.	.	2a\	nos
*	*	*custos:BB	*	*	*	*	*	*	*
!	!	!LO:TX:t=P:problem=kreska pseudotaktowa	!	!	!	!	!	!	!
4C/	-be-	4C/	-be-	.	.	.	.	.	.
!	!	!LO:LB:g=original	!	!	!	!	!	!	!
=23-	=23-	=23-	=23-	=23-	=23-	=23-	=23-	=23-	=23-
*	*	*	*	*	*	*	*	*	*ij
2BB/	-ra	2BB/	-ra	.	.	2d\	cun-	2.b\	Li-
.	.	.	.	4A/	-be-	.	.	.	.
!LO:TX:t=P:problem=kreska pseudotaktowa	!	!LO:TX:t=P:problem=kreska pseudotaktowa	!	!LO:TX:t=P:problem=kreska pseudotaktowa	!	!	!	!	!
2E,<\	nos	2E\	nos	2G/	-ra	1g	-ctis	.	.
.	.	.	.	.	.	.	.	4b\	-be-
*	*ij	*	*ij	*	*ij	*	*	*	*
!	!	!	!	!LO:TX:a:t=P:problem=# above	!	!	!	!	!
2E\	li-	2E\	li-	2.F#X/	li-	.	.	1a	-ra
!	!	!	!	!	!	!LO:TX:a:t=P:problem=# above	!	!	!
!	!	!LO:TX:t=P:problem=kreska pseudotaktowa	!	!	!	!LO:TX:t=P:problem=kreska pseudotaktowa	!	!	!
2D#X\	-be-	2D#X/	-be-	.	.	2f#X\	li-	.	.
.	.	.	.	4F#/	-be-	.	.	.	.
=24-	=24-	=24-	=24-	=24-	=24-	=24-	=24-	=24-	=24-
2E\	-ra	2E\	-ra	2E/	-ra	2g\	-be-	2g/	nos
*	*	*	*	*	*Xij	*	*	*	*Xij
!	!	!LO:TX:t=P:problem=kreska pseudotaktowa	!	!LO:TX:t=P:problem=kreska pseudotaktowa	!	!	!	!	!
2BB/	nos	2BB/	nos	2G/	nos	2d\	-ra	(<1g	Sem-
*	*Xij	*	*Xij	*	*	*	*	*	*
!LO:TX:t=P:problem=kreska pseudotaktowa	!	!	!	!	!	!LO:TX:t=P:problem=kreska pseudotaktowa	!	!	!
1Dny	sem-	1Dny	Sem-	1A	.	1d	nos	.	.
!	!	!	!	!	!	!	!	!LO:TX:t=P:problem=kreska pseudotaktowa	!
.	.	.	.	.	.	.	.	2f#X/)	.
=25-	=25-	=25-	=25-	=25-	=25-	=25-	=25-	=25-	=25-
2GG,</	-per	2GG/	-per	2B\	S(em)-	2d\	S(em)-	2g/	-per
1C	Vir-	1C	Vir-	1c,<	-p(er)	1e,<	-p(e)r	1g	Vir-
!LO:TX:t=P:problem=kreska pseudotaktowa	!	!LO:TX:t=P:problem=kreska pseudotaktowa	!	!LO:TX:t=P:problem=kreska pseudotaktowa	!	!LO:TX:t=P:problem=kreska pseudotaktowa	!	!LO:TX:t=P:problem=kreska pseudotaktowa	!
2BB/	-go	2BB/	-go	2d\	Vir-	2g\	Vir-	2b\	-go
=26-	=26-	=26-	=26-	=26-	=26-	=26-	=26-	=26-	=26-
2AA/	glo-	2AA/	glo-	2e\	-go	2a\	go	2cc\	glo-
!	!	!	!	!	!	!LO:TX:t=P:problem=kreska pseudotaktowa	!	!LO:TX:t=P:problem=kreska pseudotaktowa	!
2C/	-ri-	2C/	-ri-	2c\	glo-	2e\	glo-	2a\	-ri-
!	!	!	!	!LO:LB:g=original	!	!	!	!	!
2BB/	-o-	2BB/	-o-	2d\	-ri-	2g\	-ri-	2b\	-o-
4BB/	-sa	4.BB/	-ſa	4d\	-o-	4g\	-o-	4b\	-ſa
!LO:TX:t=P:problem=kreska pseudotaktowa	!	!	!	!LO:TX:t=P:problem=kreska pseudotaktowa	!	!	!	!	!
4AA/	et	.	.	4B\	-sa	4a\	-ſa	4cc\	et
!	!	!LO:TX:t=P:problem=kreska pseudotaktowa	!	!	!	!	!	!	!
.	.	8AA/	et	.	.	.	.	.	.
!	!	!	!	!	!	!LO:LB:g=original	!	!LO:LB:g=original	!
=27-	=27-	=27-	=27-	=27-	=27-	=27-	=27-	=27-	=27-
2GG/	be-	2GG/	be-	2d\	et	4d#X\	be-	2b\	be-
.	.	.	.	.	.	4B/	-ne-	.	.
2AA/	-ne-	2AA/	-ne-	2A/	be-	1e	-di-	2cc\	-ne-
!	!	!	!	!LO:TX:b:t=P:problem=# below	!	!	!	!	!
1BB	-di-	1BB	-dic-	4F#X/	-ne-	.	.	1b	-di-
.	.	.	.	4E/	.	.	.	.	.
!	!	!	!	!LO:TX:b:t=P:problem=# below	!	!LO:TX:a:t=P:problem=# above	!	!	!
.	.	.	.	2F#X/	-di-	2d#X\	.	.	.
=28-	=28-	=28-	=28-	=28-	=28-	=28-	=28-	=28-	=28-
!	!	!	!	!	!	!LO:TX:a:t=P:problem=# above	!	!	!
!LO:N:vis=1	!	!LO:N:vis=1	!	!LO:N:vis=1	!	!LO:N:vis=1	!	!LO:N:vis=1	!
0E;	-cta	0EE	-ta	0G	-cta	0e	-cta	0b	-cta
=29||	=29||	=29||	=29||	=29||	=29||	=29||	=29||	=29||	=29||
*M3/2	*	*M3/2	*	*M3/2	*	*M3/2	*	*M3/2	*
2.E\	Do-	2.E\	Do-	2.e\	Do-	2.g\	Do-	2.b\	Do-
4E\	-mi-	4E\	-mi-	4e\	-mi-	4g\	-mi-	4b\	-mi-
!	!	!	!	!	!	!LO:TX:t=P:problem=kreska pseudotaktowa	!	!	!
!LO:TX:t=P:problem=kreska pseudotaktowa	!	!LO:TX:t=P:problem=kreska pseudotaktowa	!	!LO:TX:t=P:problem=kreska pseudotaktowa	!	!LO:TX:a:t=P:problem=# above	!	!LO:TX:t=P:problem=kreska pseudotaktowa	!
2BB/	-na	2BB/	-na	2d\	-na	2f#X\	-na	2b\	-na
=30-	=30-	=30-	=30-	=30-	=30-	=30-	=30-	=30-	=30-
*	*ij	*	*ij	*	*ij	*	*ij	*	*ij
2.C/	Do-	2.C/	Do-	2.c\	Do-	2.e\	Do-	2.g/	Do-
4C/	-mi-	4C/	-mi-	4c\	-mi-	4e\	-mi-	4g/	-mi-
!LO:TX:t=P:problem=kreska pseudotaktowa	!	!LO:TX:t=P:problem=kreska pseudotaktowa	!	!LO:TX:t=P:problem=kreska pseudotaktowa	!	!LO:TX:t=P:problem=kreska pseudotaktowa	!	!LO:TX:t=P:problem=kreska pseudotaktowa	!
2GG/	-na	2GG/	-na	2B\	-na	2d\	-na	2g/	-na
*	*Xij	*	*	*	*	*	*	*	*
!LO:LB:g=original	!	!	!	!	!	!	!	!	!
=31-	=31-	=31-	=31-	=31-	=31-	=31-	=31-	=31-	=31-
2.D\	Do-	2.D/	Do-	2.A/	Do-	2.d\	Do-	2.g/	Do-
4D\	-mi-	4D/	-mi-	4A/	-mi-	4d\	-mi-	4g/	-mi-
!	!	!	!	!	!	!	!	!LO:TX:t=P:problem=kreska pseudotaktowa	!
!	!	!LO:TX:t=P:problem=kreska pseudotaktowa	!	!LO:TX:t=P:problem=kreska pseudotaktowa	!	!LO:TX:t=P:problem=kreska pseudotaktowa	!	!LO:TX:a:t=P:problem=# above	!
2D\	-na	2D/	-na	2A/	-na	2d\	-na	2f#X/	-na
*	*	*	*Xij	*	*Xij	*	*Xij	*	*Xij
=32-	=32-	=32-	=32-	=32-	=32-	=32-	=32-	=32-	=32-
1G	noſ-	1GG	nos-	1G	noſ-	1d	noſ-	1g	noſ-
!LO:TX:t=P:problem=kreska pseudotaktowa	!	!LO:TX:t=P:problem=kreska pseudotaktowa	!	!LO:TX:t=P:problem=kreska pseudotaktowa	!	!LO:TX:t=P:problem=kreska pseudotaktowa	!	!LO:TX:t=P:problem=kreska pseudotaktowa	!
2GG/	-tra	2GG/	-tra	2G/	-tra	2d\	-tra	2g/	-tra
=33-	=33-	=33-	=33-	=33-	=33-	=33-	=33-	=33-	=33-
2.G\	Me-	2.G\	Me-	2.B\	Me-	2.d\	Me-	2.g/	Me-
4G\	-di-	4G\	-di-	4B\	-di-	4d\	-di-	4g/	-di-
*	*	*custos:D	*	*	*	*	*	*	*
!	!	!LO:TX:t=P:problem=kreska pseudotaktowa	!	!	!	!	!	!	!
!LO:TX:t=P:problem=kreska pseudotaktowa	!	!	!	!LO:TX:t=P:problem=kreska pseudotaktowa	!	!LO:TX:t=P:problem=kreska pseudotaktowa	!	!LO:TX:t=P:problem=kreska pseudotaktowa	!
2G\	-a-	2G\	-a-	2B\	-a-	2d\	-a-	2g/	-a-
!	!	!LO:LB:g=original	!	!	!	!	!	!	!
=34-	=34-	=34-	=34-	=34-	=34-	=34-	=34-	=34-	=34-
2D\	-trix	2D/	-trix	2d\	-trix	2f#X\	-trix	2a\	-trix
!LO:TX:t=P:problem=kreska pseudotaktowa	!	!LO:TX:t=P:problem=kreska pseudotaktowa	!	!LO:TX:t=P:problem=kreska pseudotaktowa	!	!	!	!LO:TX:t=P:problem=kreska pseudotaktowa	!
1E	noſ-	1E	noſ-	1B	noſ-	1g	noſ-	1g	noſ-
=35-	=35-	=35-	=35-	=35-	=35-	=35-	=35-	=35-	=35-
2BB,</	-tra	2BB,</	-tra	2B\	-tra	2f#X\	-tra	2b\	.
2GG/	ad-	2GG/	ad-	2B\	ad-	2g\	ad-	2dd\	-tra
!	!	!LO:TX:t=P:problem=kreska pseudotaktowa	!	!LO:TX:t=P:problem=kreska pseudotaktowa	!	!LO:TX:t=P:problem=kreska pseudotaktowa	!	!LO:TX:t=P:problem=kreska pseudotaktowa	!
2GG/	-vo-	2GG/	-vo-	2B\	-vo-	2g\	-vo-	2dd\	ad-
=36-	=36-	=36-	=36-	=36-	=36-	=36-	=36-	=36-	=36-
!	!	!	!	!	!	!LO:TX:t=P:problem=kreska pseudotaktowa	!	!	!
2.C/	-ca-	2.C/	-ca-	2.e\	-ca-	1.e	-ca-	(<2.cc\	-vo-
4BB/	.	4BB/	.	4d\	.	.	.	4dd\)	.
!LO:TX:t=P:problem=kreska pseudotaktowa	!	!LO:TX:t=P:problem=kreska pseudotaktowa	!	!LO:TX:t=P:problem=kreska pseudotaktowa	!	!	!	!LO:TX:t=P:problem=kreska pseudotaktowa	!
2AA/	.	2AA/	.	2c\	.	.	.	2ee\	-ca-
=37-	=37-	=37-	=37-	=37-	=37-	=37-	=37-	=37-	=37-
2C/	-ta	2C/	-ta	2A/	-ta	2e\	-ta	2e/	-ta
!	!	!	!	!LO:TX:t=P:problem=kreska pseudotaktowa	!	!	!	!	!
1BB	noſ-	1BB	nos-	1B	noſ-	2e\	noſ-	1b	noſ-
!	!	!	!	!	!	!LO:TX:a:t=P:problem=# above	!	!	!
.	.	.	.	.	.	2d#X\	.	.	.
=38-	=38-	=38-	=38-	=38-	=38-	=38-	=38-	=38-	=38-
!	!	!	!	!	!	!	!	!LO:TX:a:t=P:problem=# above	!
1.E	-tra	1.EE	-tra	1.B	-tra	1.e	-tra.	1.g#X	-tra
!	!	!	!	!LO:LB:g=original	!	!	!	!	!
=39||	=39||	=39||	=39||	=39||	=39||	=39||	=39||	=39||	=39||
*M2/1	*	*M2/1	*	*M2/1	*	*M2/1	*	*M2/1	*
*met(C|)	*	*met(C|)	*	*met(C|)	*	*met(C|)	*	*met(C|)	*
!	!	!	!	!	!	!	!	!LO:TX:t=P:problem=kreska pseudotaktowa	!
1E	Tu-	1E	Tu-	1r	.	1rc	.	1g	Tu-
!LO:TX:t=P:problem=kreska pseudotaktowa	!	!LO:TX:t=P:problem=kreska pseudotaktowa	!	!	!	!LO:TX:t=P:problem=kreska pseudotaktowa	!	!	!
1BB	-o	1BB	-o	1B	Tu-	1d	Tu-	1d	-o
!	!	!	!	!	!	!	!	!LO:LB:g=original	!
=40-	=40-	=40-	=40-	=40-	=40-	=40-	=40-	=40-	=40-
!	!	!	!	!LO:TX:t=P:problem=kreska pseudotaktowa	!	!	!	!	!
2.E\	Fi-	2.E\	Fi-	1E	-o	1G	-o	2.g/	Fi-
4E\	-li-	4E\	-li-	.	.	.	.	4g/	-li-
!	!	!	!	!	!	!LO:LB:g=original	!	!	!
2E\	-o	2E\	-o	2.B\	Fi-	2g\	Fi-	2g/	-o
!LO:TX:t=P:problem=kreska pseudotaktowa	!	!LO:TX:t=P:problem=kreska pseudotaktowa	!	!	!	!LO:TX:t=P:problem=kreska pseudotaktowa	!	!LO:TX:t=P:problem=kreska pseudotaktowa	!
2F#X\	nos	2F#X\	nos	.	.	2f#X\	-li-	2a\	nos
.	.	.	.	4B\	-li-	.	.	.	.
=41-	=41-	=41-	=41-	=41-	=41-	=41-	=41-	=41-	=41-
2G\	re-	2G\	re-	2B\	-o	2d\	-o	2b\	re-
!	!	!LO:TX:t=P:problem=kreska pseudotaktowa	!	!LO:TX:t=P:problem=kreska pseudotaktowa	!	!	!	!	!
2E\	-con-	2E\	-con-	2c#X\	nos	2e\	nos	2g/	.
!	!	!	!	!	!	!LO:TX:a:t=P:problem=# above	!	!LO:TX:b:t=P:problem=# below	!
1.D	-ci-	1.D	-ci-	2d\	re-	2f#X\	re-	(4f#X/	-con-
.	.	.	.	.	.	.	.	4d/	.
!	!	!	!	!	!	!LO:TX:t=P:problem=kreska pseudotaktowa	!	!LO:TX:t=P:problem=kreska pseudotaktowa	!
.	.	.	.	2B\	-con-	2g\	-con-	2g/)	.
=42-	=42-	=42-	=42-	=42-	=42-	=42-	=42-	=42-	=42-
.	.	.	.	2.A/	-ci-	2.g\	-ci-	2.a\	-ci-
!LO:TX:t=P:problem=kreska pseudotaktowa	!	!	!	!	!	!	!	!	!
2D\	-li-	2D/	-li-	.	.	.	.	.	.
!	!	!	!	!LO:TX:t=P:problem=kreska pseudotaktowa	!	!	!	!	!
.	.	.	.	4A/	-li-	4f#X\	-li-	4a\	-li-
!LO:LB:g=original	!	!	!	!LO:TX:t=P:problem=kreska pseudotaktowa	!	!LO:TX:t=P:problem=kreska pseudotaktowa	!	!	!
2GG/	-a,	2GG/	-a	1G	-a	1g	-a	2b,<\	-a
!	!	!LO:TX:t=P:problem=kreska pseudotaktowa	!	!	!	!	!	!	!
2G\	Tu-	2G\	Tu-	.	.	.	.	2b\	Tu-
=43-	=43-	=43-	=43-	=43-	=43-	=43-	=43-	=43-	=43-
!LO:TX:t=P:problem=kreska pseudotaktowa	!	!LO:TX:t=P:problem=kreska pseudotaktowa	!	!	!	!	!	!LO:TX:t=P:problem=kreska pseudotaktowa	!
1D	-o	1D	-o	2r	.	2r	.	1f#X	-o
.	.	.	.	2d\	Tu-	2f#X\	Tu-	.	.
!	!	!	!	!LO:TX:t=P:problem=kreska pseudotaktowa	!	!LO:TX:t=P:problem=kreska pseudotaktowa	!	!	!
2.G\	Fi-	2.G\	Fi-	1G	-o	1B	-o	2.b\	Fi-
!LO:TX:t=P:problem=kreska pseudotaktowa	!	!	!	!	!	!	!	!	!
4G\	-li-	4G\	-li-	.	.	.	.	4b\	-li-
=44-	=44-	=44-	=44-	=44-	=44-	=44-	=44-	=44-	=44-
2G\	-o	2G\	-o	2.d\	Fi-	2b\	Fi-	2b\	-o
!	!	!LO:TX:t=P:problem=kreska pseudotaktowa	!	!	!	!	!	!LO:TX:t=P:problem=kreska pseudotaktowa	!
2A\	nos	2A\	nos	.	.	2a\	-li-	2cc#X\	noſ
.	.	.	.	4d\	-li-	.	.	.	.
!	!	!	!	!	!	!LO:TX:b:t=P:problem=# below	!	!	!
2B\	re-	2B\	re-	2d\	-o	2f#X\	-o	2dd\	re-
!	!	!	!	!LO:TX:t=P:problem=kreska pseudotaktowa	!	!LO:TX:t=P:problem=kreska pseudotaktowa	!	!	!
2G\	-com-	2G\	-com-	2e\	nos	2g\	nos	2b\	-com-
=45-	=45-	=45-	=45-	=45-	=45-	=45-	=45-	=45-	=45-
!LO:TX:t=P:problem=kreska pseudotaktowa	!	!LO:TX:t=P:problem=kreska pseudotaktowa	!	!	!	!	!	!	!
0F#X	-men-	0F#X	-m(en)-	2f#X\	re-	2d\	re-	(4a#X\	.
!	!	!	!	!	!	!	!	!LO:TX:b:t=P:problem=# below	!
.	.	.	.	.	.	.	.	4f#X/)	.
.	.	.	.	2d\	-com-	2e\	-com-	1b	.
!	!	!	!	!LO:TX:a:t=P:problem=# above	!	!	!	!	!
.	.	.	.	1c#X	-(m)en-	1f#X	-(m)en-	.	.
!	!	!	!	!	!	!	!	!LO:TX:a:t=P:problem=# above	!
!	!	!	!	!	!	!	!	!LO:TX:t=P:problem=kreska pseudotaktowa	!
.	.	.	.	.	.	.	.	2a#X\	-men-
=46-	=46-	=46-	=46-	=46-	=46-	=46-	=46-	=46-	=46-
!	!	!	!	!LO:TX:t=P:problem=kreska pseudotaktowa	!	!LO:TX:t=P:problem=kreska pseudotaktowa	!	!	!
2BB,</	-da	2BB,</	-da	1B	-da	1f#X	-da.	2b\	-da
*	*	*custos:BB	*	*	*	*	*	*	*
!	!	!	!	!	!	!	!	!LO:TX:t=P:problem=kreska pseudotaktowa	!
2E|\	Tu-	2E\	Tu-	.	.	.	.	2g/	Tu-
!LO:TX:t=P:problem=kreska pseudotaktowa	!	!LO:LB:g=original	!	!	!	!	!	!	!
1BB	-o	1BB	-o	2r	.	2r	.	1e	-o
.	.	.	.	2B\	Tu-	2d\	Tu-	.	.
=47-	=47-	=47-	=47-	=47-	=47-	=47-	=47-	=47-	=47-
!	!	!	!	!LO:TX:t=P:problem=kreska pseudotaktowa	!	!	!	!	!
2.E\	Fi-	2.E\	Fi-	1E	-o	1G	-o	2.g/	Fi-
!	!	!LO:TX:t=P:problem=kreska pseudotaktowa	!	!	!	!	!	!LO:TX:t=P:problem=kreska pseudotaktowa	!
4E\	-li-	4E\	-li-	.	.	.	.	4g/	-li-
2E\	-o	2E\	-o	2.B\	fi-	2g\	Fi-	2g/	-o
!	!	!	!	!	!	!LO:TX:a:t=P:problem=# above	!	!	!
!LO:TX:t=P:problem=kreska pseudotaktowa	!	!	!	!	!	!LO:TX:t=P:problem=kreska pseudotaktowa	!	!LO:TX:t=P:problem=kreska pseudotaktowa	!
2F#X\	nos	2F#X\	nos	.	.	2f#X\	-li-	2any\	nos
.	.	.	.	4B\	-li-	.	.	.	.
=48-	=48-	=48-	=48-	=48-	=48-	=48-	=48-	=48-	=48-
2G\	re-	2G\	re-	2B\	-o	2d\	-o	2b\	re-
!	!	!	!	!LO:TX:a:t=P:problem=# above	!	!	!	!	!
!	!	!	!	!LO:TX:t=P:problem=kreska pseudotaktowa	!	!	!	!LO:TX:t=P:problem=kreska pseudotaktowa	!
2E\	-p(rae)-	2E\	-prae-	2c#X\	nos	2e\	nos	(2g/	-prae-
!LO:TX:t=P:problem=kreska pseudotaktowa	!	!LO:TX:t=P:problem=kreska pseudotaktowa	!	!	!	!	!	!	!
0D	-ſen-	0D	-ſen-	2d\	re-	2f#X\	re-	4f#X/	.
.	.	.	.	.	.	.	.	4d/)	.
!	!	!	!	!	!	!LO:TX:t=P:problem=kreska pseudotaktowa	!	!LO:TX:t=P:problem=kreska pseudotaktowa	!
.	.	.	.	2B\	-p(rae)-	2g\	-p(rae)-	2g/	.
!	!	!	!	!LO:LB:g=original	!	!	!	!LO:LB:g=original	!
=49-	=49-	=49-	=49-	=49-	=49-	=49-	=49-	=49-	=49-
.	.	.	.	1A	-ſen-	2g\	-ſen-	1a	-ſen-
!	!	!	!	!	!	!LO:TX:a:t=P:problem=# above	!	!	!
.	.	.	.	.	.	2f#X\	.	.	.
!	!	!	!	!LO:TX:t=P:problem=kreska pseudotaktowa	!	!LO:TX:t=P:problem=kreska pseudotaktowa	!	!	!
2GG,</	-ta	2GG,</	-ta	1G	-ta	1g	-ta	2b\	-ta
!	!	!LO:TX:t=P:problem=kreska pseudotaktowa	!	!	!	!	!	!LO:TX:t=P:problem=kreska pseudotaktowa	!
2C/	Nos	2C/	nos	.	.	.	.	2ccny\	nos
=50-	=50-	=50-	=50-	=50-	=50-	=50-	=50-	=50-	=50-
!LO:TX:t=P:problem=kreska pseudotaktowa	!	!	!	!	!	!	!	!	!
1AA	re-	1AA	re-	1A	nos	2r	.	1cc	re-
.	.	.	.	.	.	1e	nos	.	.
1C	-prae-	1C	-p(rae)-	2.A/	re-	.	.	1a	-p(rae)-
!	!	!	!	!	!	!LO:TX:t=P:problem=kreska pseudotaktowa	!	!	!
.	.	.	.	.	.	2e\	re-	.	.
.	.	.	.	4A/	-prae-	.	.	.	.
!	!	!	!	!	!	!LO:LB:g=original	!	!	!
=51-	=51-	=51-	=51-	=51-	=51-	=51-	=51-	=51-	=51-
*custos:E	*	*	*	*	*	*	*	*	*
!LO:TX:t=P:problem=kreska pseudotaktowa	!	!	!	!	!	!	!	!	!
!	!	!LO:TX:t=P:problem=kreska pseudotaktowa	!	!	!	!	!	!LO:TX:t=P:problem=kreska pseudotaktowa	!
0BB	-sen-	0BB	-ſen-	2F#X/	-ſen-	2d#X\	-pre-	0b	-ſen-
!	!	!	!	!LO:TX:t=P:problem=kreska pseudotaktowa	!	!	!	!	!
.	.	.	.	2E/	.	1e	-ſen-	.	.
.	.	.	.	1F#X	.	.	.	.	.
!	!	!	!	!	!	!LO:TX:a:t=P:problem=# above	!	!	!
.	.	.	.	.	.	2d#X\	.	.	.
!LO:LB:g=original	!	!	!	!	!	!	!	!	!
=52-	=52-	=52-	=52-	=52-	=52-	=52-	=52-	=52-	=52-
!	!	!	!	!LO:TX:a:t=P:problem=# above	!	!	!	!	!
!	!	!	!	!LO:TX:t=P:problem=kreska pseudotaktowa	!	!LO:TX:t=P:problem=kreska pseudotaktowa	!	!	!
2E,<\	-ta	2EE,</	-ta	1G#X	-ta	1e	-ta	2b,<\	-ta
2E\	Tu-	2E\	Tu-	.	.	.	.	2g/	Tu-
!LO:TX:t=P:problem=kreska pseudotaktowa	!	!LO:TX:t=P:problem=kreska pseudotaktowa	!	!	!	!	!	!LO:TX:t=P:problem=kreska pseudotaktowa	!
1BB	-o	1BB	-o	2r	.	2r	.	1d	-o
.	.	.	.	2B\	Tu-	2dny\	Tu-	.	.
=53-	=53-	=53-	=53-	=53-	=53-	=53-	=53-	=53-	=53-
!	!	!	!	!LO:TX:t=P:problem=kreska pseudotaktowa	!	!LO:TX:t=P:problem=kreska pseudotaktowa	!	!	!
2.E\	Fi-	2.E\	Fi-	1E	-o	1G	-o	2.g/	Fi-
4E\	-li-	4E\	-li-	.	.	.	.	4g/	-li-
2E\	-o	2E\	-o	2.B\	Fi-	2g\	Fi-	2g/	-o
!LO:TX:t=P:problem=kreska pseudotaktowa	!	!LO:TX:t=P:problem=kreska pseudotaktowa	!	!	!	!LO:TX:a:t=P:problem=# above	!	!LO:TX:t=P:problem=kreska pseudotaktowa	!
2F#X\	nos	2F#X\	nos	.	.	2f#X\	-li-	2a\	nos
.	.	.	.	4B\	-li-	.	.	.	.
=54-	=54-	=54-	=54-	=54-	=54-	=54-	=54-	=54-	=54-
2G\	re-	2G\	re-	2B\	-o	2d\	-o	2b\	re-
!	!	!	!	!LO:TX:t=P:problem=kreska pseudotaktowa	!	!LO:TX:t=P:problem=kreska pseudotaktowa	!	!	!
2E\	-p(rae)-	2E\	-p(rae)-	2c#X\	nos	2e\	nos	2g/	-prae-
!	!	!LO:TX:t=P:problem=kreska pseudotaktowa	!	!	!	!	!	!LO:TX:b:t=P:problem=# below	!
0D	-ſen-	0D	-ſen-	2d\	re-	2f#X\	re-	4f#X/	.
.	.	.	.	.	.	.	.	4d/	.
!	!	!	!	!	!	!	!	!LO:TX:t=P:problem=kreska pseudotaktowa	!
.	.	.	.	2B\	-p(rae)-	2g\	-prae-	2g/	.
=55-	=55-	=55-	=55-	=55-	=55-	=55-	=55-	=55-	=55-
.	.	.	.	1A	-ſen-	2g\	-ſen-	1a	-ſen-
!	!	!	!	!	!	!LO:TX:a:t=P:problem=# above	!	!	!
!	!	!	!	!	!	!LO:TX:t=P:problem=kreska pseudotaktowa	!	!	!
.	.	.	.	.	.	2f#X\	.	.	.
2GG,</	-ta	2GG/	-ta	2Gny,</	-ta	2g\	-ta	2b\	-ta
!	!	!	!	!LO:TX:t=P:problem=kreska pseudotaktowa	!	!LO:TX:t=P:problem=kreska pseudotaktowa	!	!LO:TX:t=P:problem=kreska pseudotaktowa	!
2C/	nos	2C/	nos	2E/	nos	2G/	nos	2g\	nos
=56-	=56-	=56-	=56-	=56-	=56-	=56-	=56-	=56-	=56-
2AA/	re-	1AA	re-	1Fny	re-	1c	re-	1a	re-
2A\	.	.	.	.	.	.	.	.	.
!	!	!LO:TX:t=P:problem=kreska pseudotaktowa	!	!	!	!	!	!	!
1G#X	-p(rae)-	1GG#X	-p(rae)-	1B	-p(rae)-	1e	-prae-	1b	-prae-
=57-	=57-	=57-	=57-	=57-	=57-	=57-	=57-	=57-	=57-
0A	-ſen-	0AA	-ſen-	0cny	-ſen-	0e	-ſen-	0a	-ſen-
=58-	=58-	=58-	=58-	=58-	=58-	=58-	=58-	=58-	=58-
0El;	-ta.	0EEl;;	-ta.	0Bl;;	-ta	0el;;	-ta.	0g#Xl;;	-ta.
==	==	==	==	==	==	==	==	==	==
*-	*-	*-	*-	*-	*-	*-	*-	*-	*-
!!!system-decoration: [g1]s5
!!!RDF**kern: > = above
!!!RDF**kern: < = below
!!!RDF**kern: l = terminal long
!!!RDF**kern: | = vertical stroke
!!!ENC: Andrzej Kubiczek
!!!END: 2021-04-10
!!!ENC: Berenika Jozajtis
!!!END: 2021-03-17
